X:173
T:The Rejected Lover                                                                                
M:4/4                                                                                               
L:1/8                                                                                               
K:D                                                                                                 
d|ceAa gffa|efed c2 Ad|ceAa gffa|(3BBB cA BAGd|                                                     
ceAa gffa|efed c2 Ac|d2 fd c2 ec|(3BBB cA BAGB|                                                     
efed c2 Ae|fAeA cAAc|efed c2 Ac|Bgfg dBGB|                                                          
efed c2 Ae|fAeA cAAc|d2 fd c2 ec|(3BBB cA BAGB|                                                     
(3AAA a2 ge a2|efed c2 AB|(3AAA a2 ge g2|BBcA BAGB|                                                 
(3AAA a2 ge a2|efed c2 Ac|dfdf cece|Bgfg dBGg|                                                      
f<a e<f c2 Ae|fAeA cAAg|f<a e<f c2 Ac|Bgfg dBGg|                                                    
f<a e<f c2 Ae|fAeA cAAc|dfdf cece|Bgfg fBGd|>|
